dist/assets/images/weather/weather_01.svg

<svg width="86" height="86" viewBox="0 0 86 86" fill="none" xmlns="http://www.w3.org/2000/svg">
<path d="M59.8505 55.7253C55.2411 55.3401 50.777 53.9251 46.7872 51.5848C42.7975 49.2445 39.3839 46.0385 36.7983 42.2032C34.2126 38.3679 32.5208 34.0011 31.8475 29.4249C31.1743 24.8487 31.5368 20.1797 32.9083 15.7622C32.9893 15.4998 32.9879 15.2188 32.9043 14.9572C32.8207 14.6955 32.659 14.4658 32.4408 14.2989C32.2227 14.132 31.9587 14.0359 31.6843 14.0237C31.4099 14.0114 31.1383 14.0836 30.9062 14.2303C26.7959 16.5978 23.2858 19.8796 20.6475 23.8215C18.0093 27.7633 16.3138 32.2596 15.6922 36.962C15.0707 41.6644 15.5399 46.4467 17.0634 50.9387C18.587 55.4306 21.124 59.5117 24.478 62.8657C27.832 66.2197 31.913 68.7567 36.405 70.2802C40.8969 71.8038 45.6793 72.273 50.3817 71.6514C55.0841 71.0299 59.5803 69.3344 63.5222 66.6961C67.4641 64.0579 70.7459 60.5478 73.1133 56.4375C73.2508 56.2056 73.3154 55.9378 73.2986 55.6687C73.2818 55.3996 73.1845 55.1418 73.0193 54.9288C72.8541 54.7158 72.6286 54.5574 72.3722 54.4742C72.1158 54.391 71.8403 54.3868 71.5815 54.4622C67.7882 55.6307 63.8057 56.0595 59.8505 55.7253Z" fill="#EFCC00"/>
<path d="M68.8672 62.135C62.3634 62.135 54.3278 62.135 54.0859 62.135C49.71 61.8523 45.4678 60.5126 41.7232 58.2307C37.9786 55.9489 34.8432 52.7929 32.5859 49.0334H16.4609C17.8928 54.3526 20.7203 59.1924 24.6508 63.0519C28.5812 66.9114 33.4718 69.6502 38.8162 70.985C44.1605 72.3197 49.7645 72.2018 55.048 70.6434C60.3316 69.0851 65.1026 66.1429 68.8672 62.1216V62.135Z" fill="#E0E0E0"/>
<path d="M34.2656 49.0469H14.5527" stroke="#B9C1C6" stroke-width="3" stroke-miterlimit="10" stroke-linecap="round"/>
<path d="M12.8193 55.7656H25.8268" stroke="#B9C1C6" stroke-width="3" stroke-miterlimit="10" stroke-linecap="round"/>
<path d="M10.5483 62.4844H72.3743" stroke="#B9C1C6" stroke-width="3" stroke-miterlimit="10" stroke-linecap="round"/>
<path d="M46.3459 69.2031H74.7797" stroke="#A5A9AA" stroke-width="3" stroke-miterlimit="10" stroke-linecap="round"/>
<path d="M15.9233 69.2031H36.6843" stroke="#B9C1C6" stroke-width="3" stroke-miterlimit="10" stroke-linecap="round"/>
<path d="M35.4751 75.9219H61.4767" stroke="#A5A9AA" stroke-width="3" stroke-miterlimit="10" stroke-linecap="round"/>
<path d="M21.0161 75.9219H27.0361" stroke="#A5A9AA" stroke-width="3" stroke-miterlimit="10" stroke-linecap="round"/>
<path d="M33.0698 55.7656H41.5086" stroke="#B9C1C6" stroke-width="3" stroke-miterlimit="10" stroke-linecap="round"/>
</svg>

<svg width="86" height="86" fill="none" xmlns="http://www.w3.org/2000/svg"><path d="M59.85 55.725a30.906 30.906 0 01-26.942-39.963 1.343 1.343 0 00-2.002-1.532 30.907 30.907 0 1042.207 42.207 1.343 1.343 0 00-1.531-1.975 30.986 30.986 0 01-11.731 1.263z" fill="#EFCC00"/><path d="M68.867 62.135H54.086a27.117 27.117 0 01-21.5-13.102H16.46a30.906 30.906 0 0052.406 13.089v.013z" fill="#E0E0E0"/><path d="M34.266 49.047H14.553m-1.733 6.719h13.007m-15.279 6.718h61.826" stroke="#B9C1C6" stroke-width="3" stroke-miterlimit="10" stroke-linecap="round"/><path d="M46.346 69.203H74.78" stroke="#A5A9AA" stroke-width="3" stroke-miterlimit="10" stroke-linecap="round"/><path d="M15.923 69.203h20.761" stroke="#B9C1C6" stroke-width="3" stroke-miterlimit="10" stroke-linecap="round"/><path d="M35.475 75.922h26.002m-40.461 0h6.02" stroke="#A5A9AA" stroke-width="3" stroke-miterlimit="10" stroke-linecap="round"/><path d="M33.07 55.766h8.439" stroke="#B9C1C6" stroke-width="3" stroke-miterlimit="10" stroke-linecap="round"/></svg>
